X:81
T:Mr. Bushby Maitland's
N:Reel
C:Nathaniel Gow
K:D
M:C|
L:1/8
V:1
A | FDAF d2 TdA | d2 Tdf eEEA | FDAF d2 dB | (cd)eg fddA | FDAF d2 TdA | d2 Tdf eEEA | FDAF dABG | FAdg fdTd || g | Tfede fgaf |
Tgfed cAeg | Tfede fgaf | ecdB Addg | fdfg fgaf | Tgfed cAeg | fdgb afge | fdec dDD |]
V:2 clef=bass middle=d
L:1/4
z/ | dddd | ddee | dddd | aAdd | dddd | ddee | dddd | aAdd/ || z/ | d'd'd'd' | aaaa | d'd'd'd' | aAdd | d'd'dd | aaaa | dgfg | aAdD/ |]